X: 33776
T: Raven's Flight, The
R: reel
M: 4/4
K: Eminor
Bd|:eBfB gabg|fgaf efed|eBfB gabg|fagf e2eB|
eBfB gabg|fgaf efed|eBfB gabg|1 fagf e2Bd:|2 fagf e2eg||
|:~b3a gabg|~a3g fdfd|~g3f efge|fgef defg|
~b3a gabg|~a3g fdfd|~g3f efge|1 f/g/agf e2fg:|2 f/g/agf e2Bd||

